img/plus2.svg

<svg width="13" height="12" viewBox="0 0 13 12" fill="none" xmlns="http://www.w3.org/2000/svg">
<path d="M12.7415 4.60231C12.5691 4.4432 12.3597 4.36368 12.1136 4.36368H8.27262V0.818102C8.27262 0.590904 8.1864 0.397678 8.0141 0.238571C7.84177 0.0795833 7.6326 0 7.38612 0H5.61356C5.3674 0 5.1581 0.0794937 4.98574 0.238601C4.81337 0.397707 4.72722 0.590934 4.72722 0.818132V4.36371H0.886309C0.640179 4.36371 0.43085 4.44323 0.258484 4.60234C0.0861182 4.76144 0 4.95449 0 5.18184V6.81825C0 7.04566 0.0860859 7.23874 0.258452 7.39769C0.430817 7.55686 0.640146 7.63632 0.886277 7.63632H4.72719V11.182C4.72719 11.4092 4.81334 11.6025 4.9857 11.7616C5.15807 11.9205 5.36737 12 5.61353 12H7.38621C7.63254 12 7.84174 11.9205 8.01413 11.7616C8.18656 11.6024 8.27265 11.4092 8.27265 11.182V7.63632H12.1135C12.3599 7.63632 12.5691 7.55686 12.7415 7.39769C12.9138 7.23874 13 7.04566 13 6.81825V5.18184C12.9999 4.95449 12.9139 4.76132 12.7415 4.60231Z" fill="white"/>
</svg>

<svg width="13" height="12" fill="none" xmlns="http://www.w3.org/2000/svg"><path d="M12.742 4.602a.893.893 0 00-.628-.238H8.273V.818a.76.76 0 00-.259-.58A.892.892 0 007.386 0H5.614a.892.892 0 00-.628.239.76.76 0 00-.259.58v3.545H.887a.892.892 0 00-.629.238.76.76 0 00-.258.58v1.636c0 .228.086.42.258.58a.894.894 0 00.628.238h3.841v3.546c0 .227.086.42.259.58a.893.893 0 00.628.238h1.772c.247 0 .456-.08.628-.238a.76.76 0 00.259-.58V7.636h3.84a.9.9 0 00.629-.238.76.76 0 00.258-.58V5.182a.76.76 0 00-.258-.58z" fill="#fff"/></svg>
